icons/src/svg/chevron_up.svg

<svg width="32" height="32" viewBox="0 0 32 32" fill="none" xmlns="http://www.w3.org/2000/svg">
<path fill-rule="evenodd" clip-rule="evenodd" d="M27.7266 22.2169C27.3361 22.6074 26.7029 22.6074 26.3124 22.2169L16.4243 12.3288C16.19 12.0944 15.8101 12.0944 15.5758 12.3288L5.68762 22.2169C5.29709 22.6074 4.66393 22.6074 4.27341 22.2169C3.88288 21.8263 3.88288 21.1932 4.27341 20.8027L14.1615 10.9145C15.1769 9.89918 16.8231 9.89917 17.8385 10.9145L27.7266 20.8027C28.1172 21.1932 28.1172 21.8263 27.7266 22.2169Z" fill="#0D0F13"/>
</svg>

<svg fill="none" xmlns="http://www.w3.org/2000/svg" viewBox="0 0 32 32">
  <path fill-rule="evenodd" clip-rule="evenodd" d="M27.727 22.217a1 1 0 0 1-1.415 0l-9.888-9.888a.6.6 0 0 0-.848 0l-9.888 9.888a1 1 0 1 1-1.415-1.414l9.889-9.889a2.6 2.6 0 0 1 3.676 0l9.889 9.889a1 1 0 0 1 0 1.414Z" fill="currentColor"/>
</svg>
